icons/KeyboardCommand.svg

<svg width="24" height="24" viewBox="0 0 24 24" fill="none" xmlns="http://www.w3.org/2000/svg">
<path fill-rule="evenodd" clip-rule="evenodd" d="M6.50003 4.75C5.53353 4.75 4.75003 5.5335 4.75003 6.5C4.75003 7.4665 5.53353 8.25 6.50003 8.25H8.25003V6.5C8.25003 5.5335 7.46653 4.75 6.50003 4.75ZM9.75003 8.25V6.5C9.75003 4.70507 8.29496 3.25 6.50003 3.25C4.70511 3.25 3.25003 4.70507 3.25003 6.5C3.25003 8.29493 4.70511 9.75 6.50003 9.75H8.25003V14.25H6.50003C4.70511 14.25 3.25003 15.7051 3.25003 17.5C3.25003 19.2949 4.70511 20.75 6.50003 20.75C8.29496 20.75 9.75003 19.2949 9.75003 17.5V15.75H14.25V17.5C14.25 19.2949 15.7051 20.75 17.5 20.75C19.295 20.75 20.75 19.2949 20.75 17.5C20.75 15.7051 19.295 14.25 17.5 14.25H15.75V9.75H17.5C19.295 9.75 20.75 8.29493 20.75 6.5C20.75 4.70507 19.295 3.25 17.5 3.25C15.7051 3.25 14.25 4.70507 14.25 6.5V8.25H9.75003ZM9.75003 9.75V14.25H14.25V9.75H9.75003ZM15.75 8.25H17.5C18.4665 8.25 19.25 7.4665 19.25 6.5C19.25 5.5335 18.4665 4.75 17.5 4.75C16.5335 4.75 15.75 5.5335 15.75 6.5V8.25ZM15.75 15.75V17.5C15.75 18.4665 16.5335 19.25 17.5 19.25C18.4665 19.25 19.25 18.4665 19.25 17.5C19.25 16.5335 18.4665 15.75 17.5 15.75H15.75ZM8.25003 15.75H6.50003C5.53353 15.75 4.75003 16.5335 4.75003 17.5C4.75003 18.4665 5.53353 19.25 6.50003 19.25C7.46653 19.25 8.25003 18.4665 8.25003 17.5V15.75Z" fill="#002B51"/>
</svg>

<svg width="24" height="24" viewBox="0 0 24 24" fill="none" xmlns="http://www.w3.org/2000/svg">
<path fill-rule="evenodd" clip-rule="evenodd" d="M6.50003,4.75c-0.9665,0 -1.75,0.7835 -1.75,1.75c0,0.9665 0.7835,1.75 1.75,1.75h1.75v-1.75c0,-0.9665 -0.7835,-1.75 -1.75,-1.75zM14.25,8.25v-1.75c0,-1.79493 1.4551,-3.25 3.25,-3.25c1.795,0 3.25,1.45507 3.25,3.25c0,1.79493 -1.455,3.25 -3.25,3.25h-1.75v4.5h1.75c1.795,0 3.25,1.4551 3.25,3.25c0,1.7949 -1.455,3.25 -3.25,3.25c-1.7949,0 -3.25,-1.4551 -3.25,-3.25v-1.75h-4.49997v1.75c0,1.7949 -1.45507,3.25 -3.25,3.25c-1.79492,0 -3.25,-1.4551 -3.25,-3.25c0,-1.7949 1.45508,-3.25 3.25,-3.25h1.75v-4.5h-1.75c-1.79492,0 -3.25,-1.45507 -3.25,-3.25c0,-1.79493 1.45508,-3.25 3.25,-3.25c1.79493,0 3.25,1.45507 3.25,3.25v1.75zM9.75003,9.75v4.5h4.49997v-4.5zM15.75,8.25h1.75c0.9665,0 1.75,-0.7835 1.75,-1.75c0,-0.9665 -0.7835,-1.75 -1.75,-1.75c-0.9665,0 -1.75,0.7835 -1.75,1.75zM15.75,15.75v1.75c0,0.9665 0.7835,1.75 1.75,1.75c0.9665,0 1.75,-0.7835 1.75,-1.75c0,-0.9665 -0.7835,-1.75 -1.75,-1.75zM8.25003,15.75h-1.75c-0.9665,0 -1.75,0.7835 -1.75,1.75c0,0.9665 0.7835,1.75 1.75,1.75c0.9665,0 1.75,-0.7835 1.75,-1.75z" fill="#002B51"/>
</svg>
